Origami/16x16/apps/gpk-log.svg

<svg width="16" height="16" version="1" xmlns="http://www.w3.org/2000/svg">
 <rect transform="matrix(0,-1,-1,0,0,0)" x="-16" y="-16" width="16" height="16" rx=".857" ry=".857" fill="#fabd7f"/>
 <path d="m3 3v2h10v-2h-10zm0 4v2h10v-2h-10zm0 4v2h10v-2h-10z" style="fill:#3f3f3f"/>
</svg>

<svg xmlns="http://www.w3.org/2000/svg" width="16" height="16" version="1">
 <rect fill="#fabd7f" width="16" height="16" x="-16" y="-16" rx=".857" ry=".857" transform="matrix(0,-1,-1,0,0,0)"/>
 <path style="fill:#3f3f3f" d="M 3 3 L 3 5 L 13 5 L 13 3 L 3 3 z M 3 7 L 3 9 L 13 9 L 13 7 L 3 7 z M 3 11 L 3 13 L 13 13 L 13 11 L 3 11 z"/>
</svg>
